packages/foundations/assets/icons/functional/images/security/lock_closed.svg

<svg xmlns="http://www.w3.org/2000/svg" width="32" height="32" fill="none"><path fill="#1A1C1F" fill-rule="evenodd" d="M15.44 3.019c-1.718.172-3.25.866-4.384 1.987-.953.942-1.507 1.907-1.871 3.261-.129.478-.138.595-.159 2.109l-.022 1.604-.435.062c-.608.087-1.234.4-1.666.834-.375.375-.564.678-.762 1.218L6 14.48v5.947c0 6.529-.016 6.192.332 6.928.248.524.765 1.042 1.307 1.309.749.369.354.353 8.536.337l7.372-.014.35-.12c.915-.311 1.62-1.021 1.955-1.97L26 26.48v-5.947c0-5.517-.007-5.971-.094-6.287a3.07 3.07 0 0 0-2.485-2.204l-.434-.064v-1.395c0-1.552-.053-2.006-.326-2.823-.357-1.065-.845-1.844-1.672-2.668-1.062-1.059-2.25-1.692-3.688-1.965-.447-.085-1.489-.145-1.861-.108m1.867 2.149c1.512.401 2.808 1.532 3.355 2.926.267.683.312 1.016.339 2.506l.025 1.4H10.975l.024-1.4c.018-1.094.044-1.486.118-1.793.441-1.836 1.936-3.284 3.814-3.693.62-.135 1.76-.109 2.376.054m6.162 8.966c.116.06.277.208.358.33l.146.222v11.642l-.143.216c-.086.13-.236.261-.377.33l-.233.113-7.224-.002c-6.98-.001-7.23-.004-7.446-.102a.93.93 0 0 1-.373-.328l-.15-.227-.015-5.737c-.016-6.228-.025-6.015.269-6.283.324-.295-.182-.277 7.708-.279 7.189-.002 7.271-.001 7.48.105m-8.029 2.951c-1.182.391-1.749 1.621-1.257 2.731.138.314.375.613.615.776l.188.128.001 1.227c.002 1.07.014 1.254.099 1.44.125.276.433.545.676.59.489.092.904-.106 1.119-.534.129-.258.132-.291.133-1.493v-1.23l.188-.128c.558-.38.892-1.219.764-1.915a2.03 2.03 0 0 0-1.154-1.491c-.364-.167-1.027-.215-1.372-.101"/></svg>

<svg width="32" height="32" viewBox="0 0 32 32" fill="none" xmlns="http://www.w3.org/2000/svg"><path d="M15.440 3.019 C 13.722 3.191,12.190 3.885,11.056 5.006 C 10.103 5.948,9.549 6.913,9.185 8.267 C 9.056 8.745,9.047 8.862,9.026 10.376 L 9.004 11.980 8.569 12.042 C 7.961 12.129,7.335 12.442,6.903 12.876 C 6.528 13.251,6.339 13.554,6.141 14.094 L 6.000 14.480 6.000 20.427 C 6.000 26.956,5.984 26.619,6.332 27.355 C 6.580 27.879,7.097 28.397,7.639 28.664 C 8.388 29.033,7.993 29.017,16.175 29.001 L 23.547 28.987 23.897 28.867 C 24.812 28.556,25.517 27.846,25.852 26.897 L 26.000 26.480 26.000 20.533 C 26.000 15.016,25.993 14.562,25.906 14.246 C 25.587 13.092,24.596 12.213,23.421 12.042 L 22.987 11.978 22.987 10.583 C 22.987 9.031,22.934 8.577,22.661 7.760 C 22.304 6.695,21.816 5.916,20.989 5.092 C 19.927 4.033,18.739 3.400,17.301 3.127 C 16.854 3.042,15.812 2.982,15.440 3.019 M17.307 5.168 C 18.819 5.569,20.115 6.700,20.662 8.094 C 20.929 8.777,20.974 9.110,21.001 10.600 L 21.026 12.000 16.001 12.000 L 10.975 12.000 10.999 10.600 C 11.017 9.506,11.043 9.114,11.117 8.807 C 11.558 6.971,13.053 5.523,14.931 5.114 C 15.551 4.979,16.691 5.005,17.307 5.168 M23.469 14.134 C 23.585 14.194,23.746 14.342,23.827 14.464 L 23.973 14.686 23.973 20.507 L 23.973 26.328 23.830 26.544 C 23.744 26.674,23.594 26.805,23.453 26.874 L 23.220 26.987 15.996 26.985 C 9.016 26.984,8.766 26.981,8.550 26.883 C 8.410 26.819,8.271 26.698,8.177 26.555 L 8.027 26.328 8.012 20.591 C 7.996 14.363,7.987 14.576,8.281 14.308 C 8.605 14.013,8.099 14.031,15.989 14.029 C 23.178 14.027,23.260 14.028,23.469 14.134 M15.440 17.085 C 14.258 17.476,13.691 18.706,14.183 19.816 C 14.321 20.130,14.558 20.429,14.798 20.592 L 14.986 20.720 14.987 21.947 C 14.989 23.017,15.001 23.201,15.086 23.387 C 15.211 23.663,15.519 23.932,15.762 23.977 C 16.251 24.069,16.666 23.871,16.881 23.443 C 17.010 23.185,17.013 23.152,17.014 21.950 L 17.014 20.720 17.202 20.592 C 17.760 20.212,18.094 19.373,17.966 18.677 C 17.844 18.014,17.418 17.464,16.812 17.186 C 16.448 17.019,15.785 16.971,15.440 17.085 " fill="#1A1C1F" stroke="none" fill-rule="evenodd"></path></svg>
